X:1
T:016 - Vinde Adorar
T:Letra: Henry Maxwell Wright (1849-1931)
T:Música: William Knapp (1698-1768)
M:3/4
L:1/8
Q:1/4=102
K:Bb
V:1
B2| "Bb"B2A2G2| F4B2| "F"c2B2A2| "Bb"B4c2| d2c2B2| "F"A2B2c2| "Gm"B2A2 "C7"G2| "F"F2z2F2| G2F2GA| "Bb"B2A2A2| "Gm"B2B2 "F"c2|"Bb"d2z2c2| "Eb"e2d2c2| "Bb"B2A2B2| "F"c2B2A2| "Bb"B4 |]
w: 1.~Oh! Vin-dea-do-rar oex-cel-soe bom Deus, E-ter-no Se-nhor_ da ter-rae dos céus, Que rei-na, su_pre-mo, en-vol-to na luz, E que se re-ve-la em Cris-to Je-sus!  
w: 2.~Seu gran-de po-der de-veis con-tem-plar No bri-lho do céu,_ na ter-rae no mar; As go-tas de or-va-lho, sim, to_da flor, Pro-cla-mam cons-tan-tes seu gran-de Au-tor.          
W:
W: 
W: 1. Oh! Vinde adorar o excelso e bom Deus,
W: Eterno Senhor da terra e dos céus,
W: Que reina, supremo, envolto na luz,
W: E que se revela em Cristo Jesus!
W: 
W:
W:
W: 2. Seu grande poder deveis contemplar
W: No brilho do céu, na terra e no mar;
W: As gotas de orvalho, sim, toda flor,
W: Proclamam constantes seu grande Autor.
W:         
W: 				         
W:           





%wordsfont Times-Roman 13.0
%vocalfont Times-Roman 13.0
